icons/lines/calendar.svg

<svg xmlns="http://www.w3.org/2000/svg" width="24" height="24" viewBox="0 0 24 24" fill="none" stroke="currentColor" stroke-width="2" stroke-linecap="round" stroke-linejoin="round" >
  <path d="M8 2V5" stroke-miterlimit="10"/>
  <path d="M16 2V5" stroke-miterlimit="10"/>
  <path d="M3.5 9.08997H20.5" stroke-miterlimit="10"/>
  <path d="M21 8.5V17C21 20 19.5 22 16 22H8C4.5 22 3 20 3 17V8.5C3 5.5 4.5 3.5 8 3.5H16C19.5 3.5 21 5.5 21 8.5Z" stroke-miterlimit="10"/>
  <path d="M15.6947 13.7H15.7037"/>
  <path d="M15.6947 16.7H15.7037"/>
  <path d="M11.9955 13.7H12.0045"/>
  <path d="M11.9955 16.7H12.0045"/>
  <path d="M8.29431 13.7H8.30329"/>
  <path d="M8.29431 16.7H8.30329"/>
  </svg>

<svg xmlns="http://www.w3.org/2000/svg" width="24" height="24" viewBox="0 0 24 24" fill="none" stroke="currentColor" stroke-width="2" stroke-linecap="round" stroke-linejoin="round">
  <path d="M11.996 13.7h.01" />
  <path d="M11.996 16.7h.01" />
  <path d="M15.695 13.7h.01" />
  <path d="M15.695 16.7h.01" />
  <path d="M16 2v3" />
  <path d="M21 17c0 3-1.5 5-5 5H8c-3.5 0-5-2-5-5V8.5c0-3 1.5-5 5-5h8c3.5 0 5 2 5 5z" />
  <path d="M3.5 9.09h17" />
  <path d="M8 2v3" />
  <path d="M8.294 13.7h.01" />
  <path d="M8.294 16.7h.01" />
</svg>
